X:345
T:Rigadoon
A:Wyresdale, Lancashire
B:E and J Winder, 1835-41
L:1/4
M:6/4
O:England
Z:Richard Robinson 
%%TUNEURL: http://www.leeds.ac.uk/music/Info/RRTuneBk/gettune/00000eba.html
%%ID:00000eba
K:G
G |\
D2G A>GF | G2A B>AG | c>BA d>cB | A3-A2 ::
A |\
D2A B>AG | A2d G2c | A2d G2c | A>Bc d>cB | A>Bc BAG | G3-G2 :|
